build/img/payment__maestro.svg

<svg width="48" height="29" viewBox="0 0 48 29" fill="none" xmlns="http://www.w3.org/2000/svg">
<path d="M46.3158 0H1.68421C0.754047 0 0 0.741928 0 1.65714V27.3429C0 28.2581 0.754047 29 1.68421 29H46.3158C47.246 29 48 28.2581 48 27.3429V1.65714C48 0.741928 47.246 0 46.3158 0Z" fill="white"/>
<path d="M23.9553 20.6101C24.8243 19.8384 25.519 18.8959 25.9945 17.8434C26.47 16.7909 26.7157 15.652 26.7157 14.5002C26.7157 13.3484 26.47 12.2095 25.9945 11.157C25.519 10.1045 24.8243 9.16197 23.9553 8.3903C22.9498 7.48492 21.735 6.83474 20.4162 6.49624C19.0974 6.15774 17.7145 6.14115 16.3877 6.44792C15.0609 6.75469 13.8303 7.37553 12.8027 8.25653C11.7752 9.13753 10.9817 10.252 10.4913 11.5033C10.001 12.7545 9.82846 14.1046 9.98881 15.4363C10.1492 16.768 10.6375 18.0411 11.4115 19.145C12.1854 20.2488 13.2216 21.15 14.4299 21.7704C15.6383 22.3908 16.9822 22.7115 18.3452 22.7047C20.4176 22.7321 22.423 21.9833 23.9553 20.6101Z" fill="#07A9E2"/>
<path d="M9.92969 14.5014C9.94194 16.6865 10.835 18.7776 12.4127 20.3156C13.9904 21.8535 16.124 22.7126 18.3448 22.7042C20.4241 22.7242 22.432 21.9588 23.955 20.5657C24.8243 19.7984 25.5196 18.8595 25.9955 17.8102C26.4715 16.7609 26.7175 15.6247 26.7175 14.4757C26.7175 13.3266 26.4715 12.1904 25.9955 11.1411C25.5196 10.0918 24.8243 9.15297 23.955 8.38567C22.4157 7.01913 20.418 6.25969 18.3448 6.25293" fill="#009DDD"/>
<path d="M23.9539 8.39147C22.4147 7.02206 20.4155 6.26046 18.3404 6.25293H17.9396C16.6079 7.18597 15.5216 8.41792 14.7705 9.84663C14.0195 11.2753 13.6255 12.8596 13.6211 14.4681C13.6168 16.0766 14.0022 17.6629 14.7454 19.0956C15.4887 20.5282 16.5684 21.7658 17.8949 22.7059H18.2958C20.3751 22.7258 22.383 21.9604 23.9059 20.5673C24.7717 19.7993 25.4648 18.8617 25.9405 17.8146C26.4163 16.7675 26.6642 15.634 26.6684 14.487C26.6726 13.3401 26.433 12.2049 25.9649 11.1544C25.4969 10.104 24.8107 9.16143 23.9505 8.38733L23.9539 8.39147Z" fill="#0284CC"/>
<path d="M29.7019 6.25137C27.6107 6.2392 25.5917 7.00277 24.0471 8.3899C23.7442 8.65911 23.4626 8.9508 23.205 9.26239H24.8968C25.1295 9.53518 25.338 9.82708 25.52 10.1349H22.5373C22.3569 10.4162 22.1933 10.7075 22.0471 11.0074H26.0101C26.1479 11.2903 26.2669 11.5818 26.3663 11.8799H21.7347C21.6455 12.1856 21.557 12.4474 21.4678 12.7523H26.6324C26.7598 13.3256 26.8194 13.9114 26.8101 14.4981C26.8216 15.3901 26.6707 16.2768 26.3646 17.1164H21.733C21.8325 17.4145 21.9515 17.706 22.0893 17.9889H26.0522C25.9156 18.2935 25.7516 18.5855 25.5621 18.8614H22.5794C22.7614 19.1692 22.9699 19.4611 23.2025 19.7339H24.8943C24.6367 20.0455 24.3552 20.3371 24.0522 20.6064C25.6077 21.9759 27.6196 22.7368 29.7069 22.7449C31.9303 22.7449 34.0626 21.8759 35.6347 20.329C37.2069 18.7821 38.0901 16.6841 38.0901 14.4965C38.0901 12.3089 37.2069 10.2108 35.6347 8.66396C34.0626 7.11708 31.9303 6.24805 29.7069 6.24805L29.7019 6.25137Z" fill="#FF2957"/>
<path d="M29.7019 6.2521C27.6107 6.23993 25.5917 7.0035 24.0471 8.39063C23.7442 8.65984 23.4626 8.95153 23.205 9.26312H24.8968C25.1295 9.53591 25.338 9.82781 25.52 10.1356H22.5373C22.3569 10.4169 22.1933 10.7082 22.0471 11.0081H26.0101C26.1479 11.291 26.2669 11.5825 26.3663 11.8806H21.7347C21.6455 12.1863 21.557 12.4482 21.4678 12.7531H26.6324C26.7598 13.3263 26.8194 13.9121 26.8101 14.4989C26.8216 15.3908 26.6707 16.2775 26.3646 17.1172H21.733C21.8325 17.4152 21.9515 17.7067 22.0893 17.9896H26.0522C25.9156 18.2943 25.7516 18.5862 25.5621 18.8621H22.5794C22.7614 19.1699 22.9699 19.4618 23.2025 19.7346H24.8943C24.6367 20.0462 24.3552 20.3379 24.0522 20.6071C25.6077 21.9767 27.6196 22.7375 29.7069 22.7456C30.8043 22.7489 31.8915 22.5392 32.9063 22.1285C33.9212 21.7179 34.8438 21.1143 35.6213 20.3524C36.3988 19.5905 37.0159 18.6851 37.4374 17.6883C37.8588 16.6914 38.0764 15.6225 38.0775 14.5428" fill="#ED1C2E"/>
<path d="M24.0068 20.6015C24.8758 19.8315 25.5706 18.8903 26.0462 17.8391C26.5218 16.7879 26.7676 15.6501 26.7676 14.4995C26.7676 13.3488 26.5218 12.211 26.0462 11.1598C25.5706 10.1086 24.8758 9.1675 24.0068 8.39746V20.6015Z" fill="#0466B5"/>
<path d="M35.1797 16.288C35.1797 16.2361 35.1954 16.1853 35.2247 16.1421C35.254 16.0989 35.2957 16.0653 35.3445 16.0454C35.3932 16.0255 35.4469 16.0203 35.4987 16.0304C35.5505 16.0406 35.598 16.0656 35.6354 16.1023C35.6727 16.139 35.6981 16.1858 35.7084 16.2368C35.7187 16.2877 35.7135 16.3406 35.6933 16.3886C35.6731 16.4366 35.6388 16.4776 35.5949 16.5064C35.551 16.5353 35.4994 16.5507 35.4466 16.5507C35.3774 16.546 35.3122 16.5169 35.2631 16.4686C35.2141 16.4203 35.1844 16.3562 35.1797 16.288ZM35.4466 16.5068C35.5805 16.5068 35.6243 16.4189 35.6243 16.288C35.6265 16.2645 35.6234 16.2408 35.6153 16.2186C35.6071 16.1964 35.5941 16.1763 35.5771 16.1596C35.5602 16.1429 35.5397 16.1301 35.5172 16.1221C35.4946 16.1141 35.4705 16.111 35.4466 16.1132C35.3937 16.108 35.3409 16.1234 35.2993 16.1561C35.2578 16.1888 35.2309 16.2361 35.2243 16.288C35.2357 16.3419 35.2627 16.3912 35.3022 16.4301C35.3417 16.469 35.3919 16.4956 35.4466 16.5068ZM35.4466 16.375H35.402V16.1563H35.5359L35.5805 16.2002C35.5805 16.2441 35.5805 16.2441 35.5359 16.2441L35.5805 16.3319H35.5359L35.4913 16.2441H35.4466V16.3759V16.375ZM35.4466 16.2433H35.4913V16.1994H35.4466V16.2433Z" fill="white"/>
<path d="M24.0481 8.38967C23.7452 8.65887 23.4636 8.95056 23.206 9.26215H24.8978C25.1304 9.53494 25.3389 9.82684 25.521 10.1346H22.5382C22.3579 10.4159 22.1943 10.7073 22.0481 11.0071H26.0111C26.1488 11.2901 26.2678 11.5815 26.3673 11.8796H21.7357C21.6464 12.1854 21.558 12.4472 21.4688 12.7521H26.6334C26.7608 13.3253 26.8204 13.9112 26.8111 14.4979C26.8225 15.3898 26.6717 16.2766 26.3656 17.1162H21.734C21.8335 17.4143 21.9525 17.7057 22.0902 17.9887H26.0532C25.9166 18.2933 25.7525 18.5853 25.5631 18.8612H22.5803C22.7623 19.169 22.9708 19.4609 23.2035 19.7336H24.8953C24.6377 20.0452 24.3561 20.3369 24.0532 20.6061C25.6087 21.9756 27.6206 22.7365 29.7079 22.7447H30.1087C31.4303 21.8082 32.5067 20.5761 33.2491 19.1499C33.9915 17.7237 34.3786 16.1442 34.3786 14.5418C34.3786 12.9394 33.9915 11.36 33.2491 9.93374C32.5067 8.50751 31.4303 7.27538 30.1087 6.33895H29.7079C27.6223 6.27377 25.5927 7.00916 24.0481 8.38967Z" fill="#D1094B"/>
<path d="M17.2758 16.5593H16.2072L16.8304 13.3611L15.4055 16.5593H14.4708L14.2931 13.3611L13.67 16.5593H12.7344L13.5361 12.3535H15.1832L15.2725 14.9817L16.4304 12.3535H18.1238L17.2758 16.5593Z" fill="white"/>
<path d="M16.2985 14.7162L16.9217 13.3582L16.4316 15.8994C16.47 16.1378 16.5298 16.3723 16.6101 16.6004H17.3225L18.1242 12.3945H16.5655C16.3685 13.094 16.2638 13.8156 16.2539 14.5414C16.2985 14.5869 16.2985 14.6333 16.2985 14.7162Z" fill="#DCE5E5"/>
<path d="M28.9899 16.5145C28.7459 16.5971 28.4901 16.6415 28.2321 16.6462C27.6982 16.6462 27.4304 16.3836 27.4304 15.9005C27.4262 15.7965 27.4413 15.6926 27.475 15.5939L27.5196 15.2434L27.5643 14.9808L28.0544 12.3965H29.0784L28.9445 13.1853H29.4784L29.3445 13.9741H28.8106L28.5436 15.376C28.5359 15.422 28.5209 15.4664 28.499 15.5078C28.499 15.6826 28.6329 15.7704 28.8552 15.7704C28.9891 15.7704 29.0775 15.7704 29.1222 15.7265L28.9883 16.5153L28.9899 16.5145Z" fill="#DCE5E5"/>
<path d="M32.0594 13.1845C31.9702 13.1406 31.9702 13.1406 31.9255 13.1406C31.8809 13.1406 31.8362 13.1406 31.8362 13.0967H31.7015C31.3453 13.0967 31.123 13.2284 30.8114 13.6659L30.9007 13.1406H29.9659L29.3428 16.5576H30.4114C30.7676 14.4547 30.9453 14.1042 31.4354 14.1042H31.5693L31.7032 14.1481L32.0594 13.1845Z" fill="#DCE5E5"/>
<path d="M24.8453 14.2368C24.8453 14.6748 25.1125 14.9814 25.647 15.1565C26.0925 15.3313 26.1371 15.3752 26.1371 15.5509C26.1371 15.7696 25.9586 15.8575 25.5139 15.8575C25.1976 15.8567 24.883 15.8123 24.5792 15.7257L24.4453 16.5145H24.4899L24.6676 16.5584H24.9346C25.1257 16.5903 25.3193 16.605 25.5131 16.6024C26.6264 16.6024 27.1603 16.2519 27.1603 15.4631C27.1603 14.9808 26.9379 14.7173 26.4024 14.4994C25.9569 14.3246 25.9123 14.2807 25.9123 14.149C25.9123 13.9739 26.0902 13.8863 26.4462 13.8863C26.6996 13.8814 26.953 13.8961 27.2041 13.9302L27.3379 13.1414C27.0278 13.1049 26.7154 13.0903 26.4032 13.0975C25.2453 13.0975 24.8453 13.6228 24.8453 14.2368Z" fill="#DCE5E5"/>
<path d="M20.7069 16.5586H19.8648V16.2081C19.7167 16.3456 19.5414 16.4515 19.3499 16.5194C19.1584 16.5873 18.9546 16.6155 18.7515 16.6025C18.627 16.6092 18.5024 16.59 18.3859 16.5461C18.2694 16.5023 18.1636 16.4348 18.0754 16.348C17.9872 16.2612 17.9186 16.1571 17.874 16.0425C17.8295 15.9279 17.8099 15.8053 17.8168 15.6828C17.8168 14.8542 18.4846 14.3686 19.6425 14.3686H20.0879C20.1169 14.2992 20.132 14.225 20.1325 14.1499C20.1325 13.9312 19.954 13.8433 19.4648 13.8433C19.1819 13.8464 18.8999 13.8758 18.6226 13.9312L18.4888 13.9751H18.3995L18.5334 13.2294C18.9388 13.1155 19.3581 13.0564 19.7797 13.0537C20.6698 13.0537 21.1599 13.4042 21.1599 14.0612C21.1623 14.2978 21.1323 14.5336 21.0707 14.7622L20.8483 15.9885L20.8037 16.2073L20.7591 16.3821V16.5138L20.7144 16.5577L20.7069 16.5586ZM19.949 15.0249H19.7267C19.1481 15.0249 18.8366 15.2005 18.8366 15.5502C18.8322 15.5973 18.8383 15.6448 18.8547 15.6893C18.871 15.7338 18.8971 15.7742 18.9311 15.8076C18.9651 15.8411 19.0062 15.8668 19.0514 15.8828C19.0966 15.8989 19.1449 15.905 19.1928 15.9007C19.3028 15.8972 19.4108 15.8711 19.51 15.8241C19.6092 15.7771 19.6972 15.7102 19.7686 15.6277C19.84 15.5453 19.893 15.4491 19.9244 15.3452C19.9557 15.2414 19.9647 15.1323 19.9507 15.0249H19.949Z" fill="#DCE5E5"/>
<path d="M24.1349 16.4698C23.7855 16.5567 23.4266 16.6009 23.0663 16.6015C21.9084 16.6015 21.2852 16.0762 21.2852 15.0679C21.2602 14.8155 21.2885 14.5607 21.3685 14.3196C21.4484 14.0785 21.5782 13.8564 21.7497 13.6671C21.9212 13.4778 22.1307 13.3255 22.365 13.2198C22.5992 13.114 22.8532 13.0572 23.1109 13.0528C23.2859 13.0319 23.4634 13.0482 23.6314 13.1006C23.7995 13.153 23.9542 13.2402 24.085 13.3565C24.2158 13.4727 24.3198 13.6152 24.3898 13.7744C24.4599 13.9335 24.4944 14.1056 24.4911 14.2791C24.4832 14.5598 24.4382 14.8383 24.3572 15.1076H22.2646V15.2394C22.2646 15.6338 22.5761 15.8525 23.1547 15.8525C23.5239 15.8691 23.8914 15.7939 24.2233 15.6338L24.134 16.4623L24.1349 16.4698ZM23.601 14.4547V14.2799C23.6031 14.2179 23.5915 14.1563 23.567 14.0992C23.5424 14.0421 23.5056 13.9909 23.459 13.9492C23.4123 13.9075 23.3571 13.8763 23.297 13.8577C23.2369 13.8391 23.1734 13.8336 23.1109 13.8416C22.9437 13.8491 22.7847 13.915 22.6624 14.0273C22.54 14.1396 22.4623 14.2912 22.4431 14.4547H23.601Z" fill="#DCE5E5"/>
<path d="M35.3566 15.0238C35.331 15.2628 35.2576 15.4945 35.1407 15.7055C35.0238 15.9165 34.8656 16.1027 34.6753 16.2533C34.4849 16.4039 34.2662 16.516 34.0316 16.5832C33.7971 16.6503 33.5514 16.6711 33.3086 16.6445C33.0904 16.6687 32.8694 16.6451 32.6616 16.5753C32.4537 16.5054 32.2642 16.3911 32.1067 16.2405C31.9492 16.09 31.8275 15.9069 31.7506 15.7045C31.6736 15.5022 31.6431 15.2855 31.6614 15.0702C31.6452 14.8014 31.6871 14.5323 31.7843 14.2806C31.8815 14.0289 32.0318 13.8003 32.2253 13.6099C32.4188 13.4195 32.6511 13.2717 32.907 13.176C33.1628 13.0804 33.4363 13.0392 33.7094 13.0551C33.9228 13.0374 34.1375 13.0642 34.3396 13.1338C34.5416 13.2035 34.7265 13.3143 34.882 13.4591C35.0375 13.6039 35.1602 13.7794 35.242 13.9741C35.3238 14.1687 35.3628 14.3782 35.3566 14.5888V15.0271V15.0238ZM34.2433 14.5855C34.2433 14.235 34.1094 13.9284 33.6648 13.9284C33.1309 13.9284 32.8227 14.5416 32.8227 15.1116C32.8227 15.5499 33.045 15.8573 33.4012 15.8573C33.604 15.8144 33.7889 15.7124 33.9319 15.5646C34.0749 15.4169 34.1693 15.2301 34.2029 15.0288C34.2377 14.8853 34.2527 14.7379 34.2475 14.5904L34.2433 14.5855Z" fill="white"/>
<path d="M31.7065 15.4616C31.7583 15.1428 31.7882 14.8208 31.7958 14.498V14.4102C31.7414 14.6401 31.7115 14.8751 31.7065 15.1111C31.6616 15.2238 31.6616 15.349 31.7065 15.4616Z" fill="white"/>
</svg>

<svg width="48" height="29" fill="none" xmlns="http://www.w3.org/2000/svg"><path d="M46.316 0H1.684C.754 0 0 .742 0 1.657v25.686C0 28.258.754 29 1.684 29h44.632c.93 0 1.684-.742 1.684-1.657V1.657C48 .742 47.246 0 46.316 0z" fill="#fff"/><path d="M23.955 20.61a8.237 8.237 0 002.04-2.767 8.118 8.118 0 000-6.686 8.237 8.237 0 00-2.04-2.767 8.414 8.414 0 00-3.539-1.894 8.505 8.505 0 00-4.028-.048 8.422 8.422 0 00-3.585 1.809 8.24 8.24 0 00-2.312 3.246 8.116 8.116 0 00.92 7.642 8.331 8.331 0 003.019 2.625 8.482 8.482 0 003.915.935 8.245 8.245 0 005.61-2.095z" fill="#07A9E2"/><path d="M9.93 14.501a8.184 8.184 0 002.483 5.815 8.454 8.454 0 005.932 2.388 8.197 8.197 0 005.61-2.138 8.188 8.188 0 002.04-2.756 8.07 8.07 0 000-6.669 8.188 8.188 0 00-2.04-2.755 8.494 8.494 0 00-5.61-2.133" fill="#009DDD"/><path d="M23.954 8.391a8.494 8.494 0 00-5.614-2.138h-.4a10.169 10.169 0 00-3.17 3.594 9.988 9.988 0 00-1.149 4.621 9.988 9.988 0 001.124 4.628 10.168 10.168 0 003.15 3.61h.4a8.197 8.197 0 005.61-2.139 8.233 8.233 0 002.035-2.752 8.114 8.114 0 00.025-6.66 8.23 8.23 0 00-2.014-2.768l.003.004z" fill="#0284CC"/><path d="M29.702 6.251a8.392 8.392 0 00-6.497 3.011h1.692c.233.273.441.565.623.873h-2.983a8.57 8.57 0 00-.49.872h3.963a7.1 7.1 0 01.356.873h-4.631c-.09.306-.178.567-.267.872h5.164c.128.574.187 1.16.178 1.746a7.365 7.365 0 01-.445 2.618h-4.632c.1.299.218.59.356.873h3.963c-.136.305-.3.596-.49.872H22.58c.182.308.39.6.623.873h1.692a7.878 7.878 0 01-.842.872 8.61 8.61 0 005.655 2.139 8.453 8.453 0 005.928-2.416 8.182 8.182 0 002.455-5.833 8.182 8.182 0 00-2.455-5.832 8.453 8.453 0 00-5.928-2.416l-.005.003z" fill="#FF2957"/><path d="M29.702 6.252a8.392 8.392 0 00-6.497 3.011h1.692c.233.273.441.565.623.873h-2.983c-.18.28-.344.572-.49.872h3.963a7.1 7.1 0 01.356.873h-4.631c-.09.305-.178.567-.267.872h5.164c.128.573.187 1.16.178 1.746a7.366 7.366 0 01-.445 2.618h-4.632c.1.298.218.59.356.873h3.963c-.136.304-.3.596-.49.872H22.58c.182.308.39.6.623.873h1.692a7.878 7.878 0 01-.842.872 8.61 8.61 0 005.655 2.139 8.462 8.462 0 003.2-.617 8.355 8.355 0 002.714-1.777 8.205 8.205 0 001.816-2.664 8.098 8.098 0 00.64-3.145" fill="#ED1C2E"/><path d="M24.007 20.602a8.219 8.219 0 002.04-2.763 8.1 8.1 0 000-6.68 8.219 8.219 0 00-2.04-2.762v12.205z" fill="#0466B5"/><path d="M35.18 16.288a.26.26 0 01.164-.243.27.27 0 01.291.057.261.261 0 01-.188.449.29.29 0 01-.184-.082.28.28 0 01-.083-.181zm.267.219c.133 0 .177-.088.177-.219a.16.16 0 00-.107-.166.166.166 0 00-.07-.009.206.206 0 00-.148.043.2.2 0 00-.075.132.28.28 0 00.223.219zm0-.132h-.045v-.219h.134l.044.044c0 .044 0 .044-.044.044l.044.088h-.044l-.045-.088h-.044v.132-.001zm0-.132h.044V16.2h-.044v.044z" fill="#fff"/><path d="M24.048 8.39a7.88 7.88 0 00-.842.872h1.692c.232.273.44.565.623.873h-2.983c-.18.28-.344.572-.49.872h3.963a7.1 7.1 0 01.356.873h-4.631c-.09.305-.178.567-.267.872h5.164c.128.573.187 1.16.178 1.746a7.368 7.368 0 01-.445 2.618h-4.632c.1.298.218.59.356.873h3.963c-.136.304-.3.596-.49.872H22.58c.182.308.39.6.623.873h1.692a7.878 7.878 0 01-.842.872 8.61 8.61 0 005.655 2.139h.4a10.157 10.157 0 003.141-3.595 9.977 9.977 0 001.13-4.608 9.977 9.977 0 00-1.13-4.608 10.156 10.156 0 00-3.14-3.595h-.401a8.115 8.115 0 00-5.66 2.05z" fill="#D1094B"/><path d="M17.276 16.56h-1.069l.623-3.199-1.424 3.198h-.935l-.178-3.198-.623 3.198h-.936l.802-4.206h1.647l.09 2.629 1.157-2.628h1.694l-.848 4.205z" fill="#fff"/><path d="M16.299 14.716l.623-1.358-.49 2.541c.038.239.098.473.178.701h.713l.801-4.206h-1.558a8.338 8.338 0 00-.312 2.147c.044.046.044.092.044.175zm12.691 1.799c-.244.082-.5.127-.758.131-.534 0-.802-.262-.802-.746a.843.843 0 01.045-.306l.045-.35.044-.263.49-2.585h1.024l-.133.79h.533l-.134.788h-.533l-.267 1.402a.435.435 0 01-.045.132c0 .175.134.262.356.262.134 0 .223 0 .267-.043l-.134.788h.002zm3.07-3.331c-.09-.043-.09-.043-.135-.043-.044 0-.089 0-.089-.044h-.134c-.357 0-.579.131-.89.569l.089-.525h-.935l-.623 3.417h1.068c.357-2.103.534-2.454 1.024-2.454h.134l.134.044.356-.963zm-7.215 1.053c0 .438.268.744.802.92.446.174.49.218.49.394 0 .219-.178.306-.623.306-.316 0-.631-.045-.935-.131l-.134.789h.045l.178.043h.267c.19.032.384.047.578.044 1.113 0 1.647-.35 1.647-1.139 0-.482-.222-.746-.758-.964-.445-.174-.49-.218-.49-.35 0-.175.178-.263.534-.263.254-.005.507.01.758.044l.134-.789a6.68 6.68 0 00-.935-.043c-1.158 0-1.558.525-1.558 1.139zm-4.138 2.322h-.842v-.35a1.487 1.487 0 01-1.113.393.9.9 0 01-.677-.254.873.873 0 01-.258-.665c0-.829.668-1.314 1.825-1.314h.446a.577.577 0 00.044-.22c0-.218-.178-.306-.667-.306a4.554 4.554 0 00-.842.088l-.134.044h-.09l.134-.746a4.72 4.72 0 011.247-.175c.89 0 1.38.35 1.38 1.007.002.237-.028.473-.09.701l-.222 1.226-.044.22-.045.174v.132l-.045.044h-.007zm-.758-1.534h-.222c-.579 0-.89.175-.89.525a.317.317 0 00.094.258.327.327 0 00.262.093.8.8 0 00.576-.273.773.773 0 00.182-.603h-.002zm4.186 1.445c-.35.087-.708.13-1.069.132-1.158 0-1.78-.526-1.78-1.534a1.81 1.81 0 01.464-1.4 1.89 1.89 0 011.361-.614 1.25 1.25 0 01.974.303 1.212 1.212 0 01.406.922c-.008.28-.053.56-.134.829h-2.092v.131c0 .395.311.613.89.613a2.23 2.23 0 001.068-.218l-.089.828v.008zm-.534-2.015v-.175a.422.422 0 00-.142-.33.437.437 0 00-.348-.108.71.71 0 00-.449.185.69.69 0 00-.219.428h1.158z" fill="#DCE5E5"/><path d="M35.357 15.024a1.803 1.803 0 01-.682 1.23 1.865 1.865 0 01-1.366.39 1.51 1.51 0 01-1.202-.403 1.458 1.458 0 01-.446-1.17 1.878 1.878 0 01.564-1.461 1.94 1.94 0 011.484-.555 1.544 1.544 0 011.173.404 1.496 1.496 0 01.475 1.13v.438-.003zm-1.114-.438c0-.351-.134-.658-.578-.658-.534 0-.842.614-.842 1.184 0 .438.222.745.578.745.203-.043.388-.145.53-.292a1.01 1.01 0 00.272-.536c.035-.144.05-.291.044-.439l-.004-.005z" fill="#fff"/><path d="M31.706 15.462c.052-.32.082-.641.09-.964v-.088c-.055.23-.084.465-.09.701a.473.473 0 000 .35z" fill="#fff"/></svg>
